app/dist/common/images/united-homes.svg

<svg height="18" viewBox="0 0 18 18" width="18" xmlns="http://www.w3.org/2000/svg"><path d="m0 0h18v18h-18z" fill="#f0f3fa"/><path d="m7.99 6h1.01v3.36c0 1.29-.93 2.64-2.5 2.64-1.6 0-2.5-1.31-2.5-2.62v-3.38h1v3.36c0 .9.67 1.64 1.5 1.64.9 0 1.5-.73 1.5-1.64v-3.36z" fill="#003e69"/><path d="m13 6h1v6h-1v-2.5l-2 .02v2.48l-1-.02v-5.98l1 .02v2.5l2-.02z" fill="#c00"/></svg>

<!-- by TradingView --><svg width="18" height="18" viewBox="0 0 18 18" xmlns="http://www.w3.org/2000/svg"><path fill="#F0F3FA" d="M0 0h18v18H0z"/><path d="M7.99 6H9v3.36C9 10.65 8.07 12 6.5 12 4.9 12 4 10.69 4 9.38V6h1v3.36c0 .9.67 1.64 1.5 1.64.9 0 1.5-.73 1.5-1.64V6h-.01Z" fill="#003E69"/><path d="M13 6h1v6h-1V9.5l-2 .02V12l-1-.02V6l1 .02v2.5l2-.02V6Z" fill="#C00"/></svg>
